lib/healthicons/icons/solid/specialties/oncology.svg

<svg fill="none" height="48" viewBox="0 0 48 48" width="48" xmlns="http://www.w3.org/2000/svg"><path clip-rule="evenodd" d="m6 9c0-1.65685 1.34315-3 3-3h30c1.6569 0 3 1.34315 3 3v30c0 1.6569-1.3431 3-3 3h-30c-1.65685 0-3-1.3431-3-3zm13.2792 18.1331 4.0204 5.1956-4.0204 5.1337-5.0719-3.8967zm-.1856-15.5249-2.1648 2.8452c-1.7319 2.2885-1.7319 5.443 0 7.6696l12.0612 15.3394 5.01-3.8967-4.8245-6.1852-5.8141-7.4223-2.4741-2.1545c.433-.2474.9278-.4329 1.4226-.4329h3.6493c.4948 0 .9896.1237 1.4226.3711 0 .0618.0619.0618.0619.0618l-2.4741 2.1545 4.0204 5.1956 2.3504-2.9689c1.7318-2.2267 1.7318-5.3812 0-7.6697l-2.2267-2.907c-.3711-.4949-.866-.9278-1.4226-1.1752-.5567-.3093-1.1752-.433-1.7937-.433h-3.5875c-1.237 0-2.4122.6185-3.2163 1.6082zm.9278 4.1131c-.0155-.0309-.0309-.0618-.0619-.0927-.6803-.9897-.5566-1.3504.1238-2.2782.5566-.6804 1.3607-1.1134 2.2266-1.1134h3.5875c.4329 0 .8659.1237 1.237.3093s.7422.4948.9896.8041c.3093.3711.4949.8041.5567 1.237.1307.5228.0466.6109-.1658.8333-.0892.0934-.201.2105-.329.3934-.0619-.0309-.1392-.0773-.2165-.1237s-.1546-.0928-.2165-.1237c-.5566-.3093-1.1752-.433-1.7937-.433h-3.5874c-.6185 0-1.2371.1856-1.7937.433-.1856.0619-.3711.1237-.4948.2474-.031-.0309-.0464-.0618-.0619-.0928z" fill="#333" fill-rule="evenodd"/></svg>

<svg width="48" height="48" viewBox="0 0 48 48" fill="none" xmlns="http://www.w3.org/2000/svg">
<path fill-rule="evenodd" clip-rule="evenodd" d="M6 9C6 7.34315 7.34315 6 9 6H39C40.6569 6 42 7.34315 42 9V39C42 40.6569 40.6569 42 39 42H9C7.34315 42 6 40.6569 6 39V9ZM19.2792 27.1331L23.2996 32.3287L19.2792 37.4624L14.2073 33.5657L19.2792 27.1331ZM19.0936 11.6082L16.9288 14.4534C15.1969 16.7419 15.1969 19.8964 16.9288 22.123L28.99 37.4624L34 33.5657L29.1755 27.3805L23.3614 19.9582L20.8873 17.8037C21.3203 17.5563 21.8151 17.3708 22.3099 17.3708H25.9592C26.454 17.3708 26.9488 17.4945 27.3818 17.7419C27.3818 17.8037 27.4437 17.8037 27.4437 17.8037L24.9696 19.9582L28.99 25.1538L31.3404 22.1849C33.0722 19.9582 33.0722 16.8037 31.3404 14.5152L29.1137 11.6082C28.7426 11.1133 28.2477 10.6804 27.6911 10.433C27.1344 10.1237 26.5159 10 25.8974 10H22.3099C21.0729 10 19.8977 10.6185 19.0936 11.6082ZM20.0214 15.7213C20.0059 15.6904 19.9905 15.6595 19.9595 15.6286C19.2792 14.6389 19.4029 14.2782 20.0833 13.3504C20.6399 12.67 21.444 12.237 22.3099 12.237H25.8974C26.3303 12.237 26.7633 12.3607 27.1344 12.5463C27.5055 12.7319 27.8766 13.0411 28.124 13.3504C28.4333 13.7215 28.6189 14.1545 28.6807 14.5874C28.8114 15.1102 28.7273 15.1983 28.5149 15.4207C28.4257 15.5141 28.3139 15.6312 28.1859 15.8141C28.124 15.7832 28.0467 15.7368 27.9694 15.6904C27.8921 15.644 27.8148 15.5976 27.7529 15.5667C27.1963 15.2574 26.5777 15.1337 25.9592 15.1337H22.3718C21.7533 15.1337 21.1347 15.3193 20.5781 15.5667C20.3925 15.6286 20.207 15.6904 20.0833 15.8141C20.0523 15.7832 20.0369 15.7523 20.0214 15.7213Z" fill="#333333"/>
</svg>
